cellusarquivos/icones/phone.svg

<svg width="32" height="32" viewBox="0 0 32 32" fill="none" xmlns="http://www.w3.org/2000/svg">
<path d="M28.8646 21.8218L24.34 21.3052C23.2533 21.1805 22.1845 21.5546 21.4185 22.3206L18.1408 25.5983C13.0996 23.0332 8.9668 18.9182 6.40164 13.8591L9.69716 10.5635C10.4631 9.79755 10.8372 8.72873 10.7125 7.64209L10.1959 3.15303C9.98218 1.35384 8.46802 0 6.65103 0H3.56927C1.55633 0 -0.118152 1.67449 0.0065438 3.68744C0.950666 18.9004 13.1174 31.0493 28.3124 31.9935C30.3253 32.1182 31.9998 30.4437 31.9998 28.4307V25.3489C32.0176 23.5497 30.6638 22.0356 28.8646 21.8218Z" fill="url(#paint0_linear_16_199)"/>
<defs>
<linearGradient id="paint0_linear_16_199" x1="16" y1="0" x2="16" y2="32" gradientUnits="userSpaceOnUse">
<stop stop-color="#C4141E"/>
<stop offset="1" stop-color="#AA0C15"/>
</linearGradient>
</defs>
</svg>

<svg xmlns="http://www.w3.org/2000/svg" width="32" height="32" fill="none"><path fill="url(#a)" d="m28.865 21.822-4.525-.517a3.546 3.546 0 0 0-2.921 1.016l-3.278 3.277A26.801 26.801 0 0 1 6.4 13.86l3.296-3.296a3.546 3.546 0 0 0 1.016-2.92l-.517-4.49A3.565 3.565 0 0 0 6.65 0H3.569C1.556 0-.118 1.674.007 3.687.95 18.9 13.117 31.05 28.312 31.994c2.013.124 3.688-1.55 3.688-3.563v-3.082c.018-1.8-1.336-3.313-3.135-3.527Z"/><defs><linearGradient id="a" x1="16" x2="16" y1="0" y2="32" gradientUnits="userSpaceOnUse"><stop stop-color="#C4141E"/><stop offset="1" stop-color="#AA0C15"/></linearGradient></defs></svg>
